X:1
T:Title
%%score { ( 1 3 ) | ( 2 4 ) }
L:1/8
M:6/8
K:Db
V:1 treble nm="Grand Piano"
V:3 treble 
V:2 treble 
V:4 treble 
V:1
 z3 z2[Q:1/4=87] A | d>dd dAA | B>BB A3 | A>BA G3 | [EG]>[FA][EG] F2 A | d>dd dAA | B>BB A2 [DFA] | %7
 [FA]>[GB][FA] [A,EG][A,DF][K:bass][G,CE] | [F,D]3- [F,D]2[K:treble] [DFA] | A>AA cBA | %10
 ABc [Fd]2 [FA] | A>AA cBA | [GB][FA][EG] [DF]2 [FA] | [Fd]>[Fd][Fd] [Af][Ae][Ad] | %14
[M:7/8] B>BB [=Ge]3 [Gd] |[M:3/4] c>c cc B[Gc] | [Fd]6 | [FA]4 z2 | [CE]6 | [Ec]3 [Ge] dc | [Fd]6 | %21
 d>e d[Bd] [Ac][GB] | [FA]>[GB] [FA] [FA]2 [B,EG] | %23
 [A,DF]>[B,DG] [A,DF][A,DF][K:bass] [F,A,D][G,CE] |[M:5/8] [F,D]-[F,D]- [F,D]3 |] %25
V:2
 z3 z2 F | F>FF FFF | G>GG F3 | [A,F]>[A,G][A,F][K:bass] [A,E]3 | %4
 [A,,A,]>[A,,A,][A,,A,] [D,A,D]2[K:treble] F | F>FF FFF | G>GG F2[K:bass] D, | A,>A,A, A,,A,,A,, | %8
 D,3- D,2 D, | [A,CG]>[A,CG][A,CG] [A,EG][A,DG][A,CG] | [A,CG][A,B,G][A,G][K:bass] [D,A,]2 [D,D] | %11
 [A,CG]>[A,CG][A,CG] [A,EG][A,DG][A,CG] | [A,,A,][B,,A,][C,A,] [D,A,]2 [D,D] | %13
 [D,A,]>[D,A,][D,A,] [D,D][E,C][F,D] |[M:7/8] [G,DG]>[G,DG][G,B,G] [E,B,]3 [E,E] | %15
[M:3/4][K:treble] [A,EA]>[A,EA] [A,EA][A,EG] [A,G][K:bass][A,,A,] | [D,A,]6 | %17
 D,>D, .D,2[K:treble] FD | A,,>A,, A,, .A,,3 | A,>A, .A,2[K:treble] FE | [D,A,]>D, D, D,2 [D,A,] | %21
 [G,B,G]>[G,B,G] [G,B,G][G,D] [G,D][G,D] | [D,D]>[D,D] [D,D] [D,D]2 A,, | A,,>A,, A,,A,, A,,A,, | %24
[M:5/8] D,-D,- D,3 |] %25
V:3
 x6 | x6 | x6 | x6 | x6 | x6 | x6 | x5[K:bass] x | x5[K:treble] x | x6 | x6 | x6 | x6 | x6 | %14
[M:7/8] x7 |[M:3/4] x6 | x6 | A,>A, A,d AF | A,>A, A, .A,3 | x6 | z z/ A,/ A, A,2 [Fd] | x6 | x6 | %23
 x4[K:bass] x2 |[M:5/8] x5 |] %25
V:4
 x6 | x6 | x6 | x3[K:bass] x3 | x5[K:treble] x | x6 | x5[K:bass] x | x6 | x6 | x6 | x3[K:bass] x3 | %11
 x6 | x6 | x6 |[M:7/8] x7 |[M:3/4][K:treble] x5[K:bass] x | x6 | z2 z .[D,A,]3[K:treble] | x6 | %19
 z2 z .A,3[K:treble] | x6 | x6 | x6 | x6 |[M:5/8] x5 |] %25

